X:1
T:O dolce nocte - Verdelot
T:#
%%score [ 1 2 3 4 ]
L:1/8
Q:1/4=108
M:4/4
K:F
V:1 treble nm="Soprano"
V:2 treble nm="Alto"
V:3 treble-8 nm="Tenor"
V:4 bass nm="Bass"
V:1
"^Niccolò Machiavelli\n(1469–1527)""^Philippe Verdelot\n(1485-1552)" ^c8 | %1
w: O|
 ^c2 c2"^O dolce nocte" d4 | ^c4 z2 c2 | ^c4 d4 | d4 d2 c2 | B6 (AG) | A4 z2 A2 | %7
w: dol- ce noc-|te, O|sanc- t'Ho-|re noc- tur-|n'et que\- *|te, Ch'i|
[M:4/4] A2 A2 A2 A2 | (B3 A G2) F2 | E2 G3 F (F2- | F2 E2) F4 | z2 A2 A2 A2 | A2 A2 c4 | %13
w: de- si- o- si~a-|man\- * * ti|ac- com- pa- gna\-|* * te;|In voi s'a-|du- nan tan-|
 B3 A G2 F2 | G2 A2 B4 | A4 z2 c2 | B2 A2 G2 G2 | F4 G4 | F2 E2 F4 | E4 z2 E2 | F2 A2 A2 G2 | %21
w: te Le- ti- tie~on-|de voi se-|te So-|le ca- gion di|far l'al-|me be- a-|te, Voii|giu- sti pre- mii|
 A2 A2 z2 A2 | B2 G2 A2 B2 | c4 A4 | A2 G2 A4 | F4 z2 A2 | A2 A2 A2 A2 | A4 B4 | c4 B2 A2 | %29
w: da- te A|l'a- mo- ro- se|schie- re~a|voi a- mi-|che, Del-|le lun- ge fa-|ti- che;|Voi fa- t',~o|
 G2 ^F2 G4 | ^F8 | z8 | z8 | z8 | z2 A2 B2 A2 | B2 c2 d3 c | B2 (A3 G/F/) G2 | A8- | A8 | %39
w: fe- li- ce~ho-|re||||O- gni ge-|la- to pec- t'ar-|der d'a\- * * mo-|re||
[Q:1/4=105] A8 |[Q:1/4=99] A8 |[Q:1/4=94] A8 |[Q:1/4=92] A8 |] %43
w: ||||
V:2
 A8 | A2 A2 (F2 G2) | A4 z2 A2 | A4 F4 | B4 B2 A2 | F4 F4 | F4 z2 C2 |[M:4/4] F3 E D2 C2 | %8
w: O|dol- ce noc\- *|te, O|sanc- t'Ho-|re noc- tur-|n'et que-|te, Ch'i|de- si- o- si~a-|
 (F3 E) D4 | C2 E2 D4 | C4 C4 | z2 F2 F2 F2 | E2 E2 A4 | F3 E D2 C2 | D2 F4 E2 | F4 z2 G2 | %16
w: man\- * ti|ac- com- pa-|gna- te;|In voi s'a-|du- nan tan-|te Le- ti- tie~on-|de voi se-|te So-|
 F2 F2 E2 E2 | D4 E4 | D2 C2 D4 | C4 C4 | C2 C2 F2 E2 | F2 F2 z2 F2 | G3 E F2 G2 | A4 F4 | %24
w: le ca- gion di|far l'al-|me be- a-|te, Voii|giu- sti pre- mii|da- te A|l'a- mo- ro- se|schie- re~a|
 E2 D2 E4 | D4 z2 F2 | E2 D2 C2 F2 | E2 ^F2 G3 =F | E4 D4- | D2 C2 D4 | D4 z2 D2 | D2 D2 E2 F2 | %32
w: voi a- mi-|che, Del-|le lun- ge fa-|ti- che; Voi fa-|t',~o fe\-|* li- ce~ho-|re O-|gni ge- la- to|
 G3 F E2 (D2- | D^C/=B,/) !courtesy!^C2 D4 | z2 F2 G2 F2 | G2 G2 A3 G | F3 E D4 | D4 z2 A,2 | %38
w: pec- t'ar- der d'a\-|* * * mo- re,|O- gni ge-|la- to pec t'ar-|der d'a- mo-|re, O-|
 D2 C2 D2 E2 | F3 E D2 C2 | (D2 E2 F4) | E8- | E8 |] %43
w: gni ge- la- to|pec- t'ar- der d'a-|mo\- * *|re.||
V:3
 e8 | e2 e2 d4 | e4 z2 e2 | e2 f4 d2- | d2 g3 f e2 | d4 c4 | z2 c2 f3 e | %7
w: O|dol- ce noc-|te, O|sanc- t'Ho- re|* noc- tur- n'et|que- te,|Ch'i de- si-|
[M:4/4][K:treble-8] d2 c2 (f3 e | d3 c B3 A) | G2 c2 A2 B2 | G4 F4 | z2 c2 c2 d2 | ^c2 c2 e4 | %13
w: o- si~a- man\- *||ti ac- com- pa-|gna- te;|In voi s'a-|du- nan tan-|
 d3 c B2 A2 | G2 F2 B4 | c4 z2 e2 | d2 c2 c2 c2 | A4 c4 | A2 A2 A4 | A4 A4 | F2 F2 c2 c2 | %21
w: te Le- ti- tie~on-|de voi se-|te So-|le ca- gion di|far l'al-|me be- a-|te, Voii|giu- sti pre- mii|
 c2 c2 z2 c2 | d2 e2 c2 d2 | f4 (c3 B) | c2 d2 c4 | A4 z2 d2 | c2 f2 e2 d2 | c4 d4 | c2 G4 ^F2 | %29
w: da- te A|l'a- mo- ro- se|schie- re a|voi a- mi-|che, Del-|le lun- ge fa-|ti- che;|Voi fa- t',~o|
 G2 A2 B4 | A4 z2 A2 | B2 A2 B2 c2 | d3 c B2 A2 | G4 A4 | z2 d2 d2 c2 | d2 e2 f3 e | d2 c2 B4 | %37
w: fe- li- ce~ho-|re O-|gni ge- la- to|pec- t'ar- der d'a-|mo- re,|O- gni ge-|la- to pec- t'ar-|der d'a- mo-|
 A2 A2 d3 e | f2 e2 f3 e | (d2 cB A2) (f2- | f2 e2) d4 | ^c8- | c8 |] %43
w: re, O- gni ge-|la- to pec- t'ar-|der * * * d'a\-|* * mo-|re.||
V:4
 A,8 | A,2 A,2 B,4 | A,4 z2 A,2 | A,4 B,4 | G,4 G,2 A,2 | B,4 F,4 | F,4 z2 F,2 | %7
w: O|dol- ce noc-|te, O|sanc- t'Ho-|re noc- tur-|n'et que-|te, Ch'i|
[M:4/4] F,2 F,2 F,2 F,2 | B,,6 B,,2 | C,4 D,2 B,,2 | C,4 F,4 | z2 F,2 F,2 D,2 | A,2 A,2 A,4 | %13
w: de- si- o- si~a-|man- ti|ac- com- pa-|gna- te;|In voi s'a-|du- nan tan-|
 B,2 F,2 G,2 A,2 | B,2 A,2 G,4 | F,4 z2 C,2 | D,2 F,2 C,2 C,2 | D,4 C,4 | D,2 A,,2 D,4 | %19
w: te Le- ti- tie~on-|de voi se-|te So-|le ca- gion di|far l'al-|me be- a-|
 A,,4 A,,4 | A,2 A,2 F,2 C,2 | F,2 F,2 z2 F,2 | B,2 C2 A,2 G,2 | F,4 F,4 | A,2 B,2 A,4 | %25
w: te, Voii|giu- sti pre- mii|da- te A|l'a- mo- ro- se|schie- re~a|voi a- mi-|
 D,4 z2 D,2 | A,2 D,2 A,2 D,2 | A,4 G,4 | C,4 G,2 A,2 | B,2 A,2 G,4 | D,4 z2 D,2 | %31
w: che, Del-|le lun- ge fa-|ti- che;|Voi fa- t',~o|fe- li- ce~ho-|re O-|
 G,2 F,2 G,2 A,2 | B,3 A, G,2 F,2 | E,4 D,4 | z2 D,2 G,2 A,2 | G,2 E,2 D,2 D,2 | D,2 F,2 G,4 | %37
w: gni ge- la- to|pec- t'ar- der d'a-|mo- re,|O- gni ge-|la- to pec- t'ar-|der d'a- mo-|
 D,8 | z2 A,,2 D,2 C,2 | D,2 E,2 F,3 E, | D,2 ^C,2 D,4 | A,,8- | A,,8 |] %43
w: re,|O- gni ge-|la- to pec- t'ar-|der d'a- mo-|re.||

